AlexaV3_K1S1_LogC2Video_EE_nuke1d.cube
# Alexa conversion LUT, logc2video. Full in/full out.
# created by alexalutconv (2.09)

LUT_1D_SIZE 4096
0.000000 0.000000 0.000000
0.000089 0.000089 0.000089
0.000179 0.000179 0.000179
0.000268 0.000268 0.000268
0.000358 0.000358 0.000358
0.000447 0.000447 0.000447
0.000537 0.000537 0.000537
0.000627 0.000627 0.000627
0.000716 0.000716 0.000716
0.000806 0.000806 0.000806
0.000896 0.000896 0.000896
0.000986 0.000986 0.000986
0.001076 0.001076 0.001076
0.001166 0.001166 0.001166
0.001256 0.001256 0.001256
0.001346 0.001346 0.001346
0.001436 0.001436 0.001436
0.001526 0.001526 0.001526
0.001617 0.001617 0.001617
0.001707 0.001707 0.001707
0.001797 0.001797 0.001797
0.001888 0.001888 0.001888
0.001979 0.001979 0.001979
0.002069 0.002069 0.002069
0.002160 0.002160 0.002160
0.002250 0.002250 0.002250
0.002341 0.002341 0.002341
0.002432 0.002432 0.002432
0.002523 0.002523 0.002523
0.002614 0.002614 0.002614
0.002705 0.002705 0.002705
0.002796 0.002796 0.002796
0.002887 0.002887 0.002887
0.002978 0.002978 0.002978
0.003069 0.003069 0.003069
0.003160 0.003160 0.003160
0.003251 0.003251 0.003251
0.003343 0.003343 0.003343
0.003434 0.003434 0.003434
0.003525 0.003525 0.003525
0.003617 0.003617 0.003617
0.003708 0.003708 0.003708
0.003800 0.003800 0.003800
0.003892 0.003892 0.003892
0.003983 0.003983 0.003983
0.004075 0.004075 0.004075
0.004167 0.004167 0.004167
0.004259 0.004259 0.004259
0.004351 0.004351 0.004351
0.004443 0.004443 0.004443
0.004535 0.004535 0.004535
0.004627 0.004627 0.004627
0.004719 0.004719 0.004719
0.004811 0.004811 0.004811
0.004904 0.004904 0.004904
0.004996 0.004996 0.004996
0.005089 0.005089 0.005089
0.005181 0.005181 0.005181
0.005274 0.005274 0.005274
0.005366 0.005366 0.005366
0.005459 0.005459 0.005459
0.005552 0.005552 0.005552
0.005645 0.005645 0.005645
0.005738 0.005738 0.005738
0.005831 0.005831 0.005831
0.005924 0.005924 0.005924
0.006017 0.006017 0.006017
0.006111 0.006111 0.006111
0.006204 0.006204 0.006204
0.006297 0.006297 0.006297
0.006390 0.006390 0.006390
0.006484 0.006484 0.006484
0.006577 0.006577 0.006577
0.006671 0.006671 0.006671
0.006765 0.006765 0.006765
0.006858 0.006858 0.006858
0.006952 0.006952 0.006952
0.007046 0.007046 0.007046
0.007140 0.007140 0.007140
0.007234 0.007234 0.007234
0.007328 0.007328 0.007328
0.007422 0.007422 0.007422
0.007516 0.007516 0.007516
0.007610 0.007610 0.007610
0.007705 0.007705 0.007705
0.007799 0.007799 0.007799
0.007893 0.007893 0.007893
0.007988 0.007988 0.007988
0.008083 0.008083 0.008083
0.008177 0.008177 0.008177
0.008272 0.008272 0.008272
0.008367 0.008367 0.008367
0.008462 0.008462 0.008462
0.008557 0.008557 0.008557
0.008652 0.008652 0.008652
0.008747 0.008747 0.008747
0.008842 0.008842 0.008842
0.008937 0.008937 0.008937
0.009032 0.009032 0.009032
0.009128 0.009128 0.009128
0.009223 0.009223 0.009223
0.009319 0.009319 0.009319
0.009414 0.009414 0.009414
0.009510 0.009510 0.009510
0.009606 0.009606 0.009606
0.009702 0.009702 0.009702
0.009798 0.009798 0.009798
0.009895 0.009895 0.009895
0.009991 0.009991 0.009991
0.010087 0.010087 0.010087
0.010183 0.010183 0.010183
0.010279 0.010279 0.010279
0.010376 0.010376 0.010376
0.010472 0.010472 0.010472
0.010569 0.010569 0.010569
0.010665 0.010665 0.010665
0.010762 0.010762 0.010762
0.010859 0.010859 0.010859
0.010956 0.010956 0.010956
0.011053 0.011053 0.011053
0.011150 0.011150 0.011150
0.011247 0.011247 0.011247
0.011344 0.011344 0.011344
0.011441 0.011441 0.011441
0.011538 0.011538 0.011538
0.011636 0.011636 0.011636
0.011733 0.011733 0.011733
0.011831 0.011831 0.011831
0.011929 0.011929 0.011929
0.012026 0.012026 0.012026
0.012124 0.012124 0.012124
0.012222 0.012222 0.012222
0.012320 0.012320 0.012320
0.012418 0.012418 0.012418
0.012516 0.012516 0.012516
0.012614 0.012614 0.012614
0.012713 0.012713 0.012713
0.012811 0.012811 0.012811
0.012910 0.012910 0.012910
0.013008 0.013008 0.013008
0.013107 0.013107 0.013107
0.013205 0.013205 0.013205
0.013304 0.013304 0.013304
0.013403 0.013403 0.013403
0.013502 0.013502 0.013502
0.013601 0.013601 0.013601
0.013700 0.013700 0.013700
0.013800 0.013800 0.013800
0.013899 0.013899 0.013899
0.013998 0.013998 0.013998
0.014099 0.014099 0.014099
0.014198 0.014198 0.014198
0.014298 0.014298 0.014298
0.014398 0.014398 0.014398
0.014498 0.014498 0.014498
0.014597 0.014597 0.014597
0.014697 0.014697 0.014697
0.014798 0.014798 0.014798
0.014898 0.014898 0.014898
0.014998 0.014998 0.014998
0.015098 0.015098 0.015098
0.015199 0.015199 0.015199
0.015299 0.015299 0.015299
0.015400 0.015400 0.015400
0.015501 0.015501 0.015501
0.015602 0.015602 0.015602
0.015703 0.015703 0.015703
0.015804 0.015804 0.015804
0.015905 0.015905 0.015905
0.016006 0.016006 0.016006
0.016108 0.016108 0.016108
0.016209 0.016209 0.016209
0.016310 0.016310 0.016310
0.016412 0.016412 0.016412
0.016514 0.016514 0.016514
0.016615 0.016615 0.016615
0.016717 0.016717 0.016717
0.016819 0.016819 0.016819
0.016921 0.016921 0.016921
0.017023 0.017023 0.017023
0.017126 0.017126 0.017126
0.017228 0.017228 0.017228
0.017330 0.017330 0.017330
0.017433 0.017433 0.017433
0.017536 0.017536 0.017536
0.017638 0.017638 0.017638
0.017741 0.017741 0.017741
0.017844 0.017844 0.017844
0.017947 0.017947 0.017947
0.018050 0.018050 0.018050
0.018153 0.018153 0.018153
0.018257 0.018257 0.018257
0.018360 0.018360 0.018360
0.018464 0.018464 0.018464
0.018568 0.018568 0.018568
0.018671 0.018671 0.018671
0.018775 0.018775 0.018775
0.018879 0.018879 0.018879
0.018983 0.018983 0.018983
0.019087 0.019087 0.019087
0.019191 0.019191 0.019191
0.019295 0.019295 0.019295
0.019400 0.019400 0.019400
0.019505 0.019505 0.019505
0.019609 0.019609 0.019609
0.019714 0.019714 0.019714
0.019819 0.019819 0.019819
0.019924 0.019924 0.019924
0.020029 0.020029 0.020029
0.020134 0.020134 0.020134
0.020239 0.020239 0.020239
0.020344 0.020344 0.020344
0.020450 0.020450 0.020450
0.020555 0.020555 0.020555
0.020661 0.020661 0.020661
0.020767 0.020767 0.020767
0.020872 0.020872 0.020872
0.020978 0.020978 0.020978
0.021084 0.021084 0.021084
0.021190 0.021190 0.021190
0.021297 0.021297 0.021297
0.021403 0.021403 0.021403
0.021509 0.021509 0.021509
0.021616 0.021616 0.021616
0.021723 0.021723 0.021723
0.021829 0.021829 0.021829
0.021936 0.021936 0.021936
0.022043 0.022043 0.022043
0.022150 0.022150 0.022150
0.022258 0.022258 0.022258
0.022365 0.022365 0.022365
0.022472 0.022472 0.022472
0.022580 0.022580 0.022580
0.022687 0.022687 0.022687
0.022795 0.022795 0.022795
0.022903 0.022903 0.022903
0.023011 0.023011 0.023011
0.023119 0.023119 0.023119
0.023228 0.023228 0.023228
0.023336 0.023336 0.023336
0.023445 0.023445 0.023445
0.023553 0.023553 0.023553
0.023662 0.023662 0.023662
0.023771 0.023771 0.023771
0.023880 0.023880 0.023880
0.023988 0.023988 0.023988
0.024098 0.024098 0.024098
0.024207 0.024207 0.024207
0.024316 0.024316 0.024316
0.024425 0.024425 0.024425
0.024535 0.024535 0.024535
0.024645 0.024645 0.024645
0.024754 0.024754 0.024754
0.024864 0.024864 0.024864
0.024974 0.024974 0.024974
0.025084 0.025084 0.025084
0.025194 0.025194 0.025194
0.025305 0.025305 0.025305
0.025415 0.025415 0.025415
0.025526 0.025526 0.025526
0.025636 0.025636 0.025636
0.025747 0.025747 0.025747
0.025858 0.025858 0.025858
0.025969 0.025969 0.025969
0.026080 0.026080 0.026080
0.026191 0.026191 0.026191
0.026303 0.026303 0.026303
0.026414 0.026414 0.026414
0.026526 0.026526 0.026526
0.026637 0.026637 0.026637
0.026749 0.026749 0.026749
0.026861 0.026861 0.026861
0.026973 0.026973 0.026973
0.027085 0.027085 0.027085
0.027198 0.027198 0.027198
0.027311 0.027311 0.027311
0.027424 0.027424 0.027424
0.027536 0.027536 0.027536
0.027649 0.027649 0.027649
0.027762 0.027762 0.027762
0.027875 0.027875 0.027875
0.027988 0.027988 0.027988
0.028101 0.028101 0.028101
0.028215 0.028215 0.028215
0.028328 0.028328 0.028328
0.028442 0.028442 0.028442
0.028556 0.028556 0.028556
0.028669 0.028669 0.028669
0.028783 0.028783 0.028783
0.028898 0.028898 0.028898
0.029012 0.029012 0.029012
0.029126 0.029126 0.029126
0.029241 0.029241 0.029241
0.029355 0.029355 0.029355
0.029470 0.029470 0.029470
0.029585 0.029585 0.029585
0.029700 0.029700 0.029700
0.029815 0.029815 0.029815
0.029930 0.029930 0.029930
0.030045 0.030045 0.030045
0.030161 0.030161 0.030161
0.030277 0.030277 0.030277
0.030392 0.030392 0.030392
0.030508 0.030508 0.030508
0.030624 0.030624 0.030624
0.030740 0.030740 0.030740
0.030857 0.030857 0.030857
0.030973 0.030973 0.030973
0.031090 0.031090 0.031090
0.031206 0.031206 0.031206
0.031323 0.031323 0.031323
0.031441 0.031441 0.031441
0.031558 0.031558 0.031558
0.031675 0.031675 0.031675
0.031792 0.031792 0.031792
0.031909 0.031909 0.031909
0.032027 0.032027 0.032027
0.032145 0.032145 0.032145
0.032262 0.032262 0.032262
0.032380 0.032380 0.032380
0.032498 0.032498 0.032498
0.032617 0.032617 0.032617
0.032735 0.032735 0.032735
0.032853 0.032853 0.032853
0.032972 0.032972 0.032972
0.033091 0.033091 0.033091
0.033209 0.033209 0.033209
0.033328 0.033328 0.033328
0.033448 0.033448 0.033448
0.033567 0.033567 0.033567
0.033686 0.033686 0.033686
0.033806 0.033806 0.033806
0.033925 0.033925 0.033925
0.034045 0.034045 0.034045
0.034165 0.034165 0.034165
0.034285 0.034285 0.034285
0.034406 0.034406 0.034406
0.034526 0.034526 0.034526
0.034646 0.034646 0.034646
0.034767 0.034767 0.034767
0.034888 0.034888 0.034888
0.035009 0.035009 0.035009
0.035130 0.035130 0.035130
0.035251 0.035251 0.035251
0.035372 0.035372 0.035372
0.035494 0.035494 0.035494
0.035615 0.035615 0.035615
0.035737 0.035737 0.035737
0.035859 0.035859 0.035859
0.035981 0.035981 0.035981
0.036103 0.036103 0.036103
0.036225 0.036225 0.036225
0.036348 0.036348 0.036348
0.036470 0.036470 0.036470
0.036593 0.036593 0.036593
0.036716 0.036716 0.036716
0.036839 0.036839 0.036839
0.036962 0.036962 0.036962
0.037085 0.037085 0.037085
0.037208 0.037208 0.037208
0.037332 0.037332 0.037332
0.037455 0.037455 0.037455
0.037579 0.037579 0.037579
0.037703 0.037703 0.037703
0.037827 0.037827 0.037827
0.037951 0.037951 0.037951
0.038076 0.038076 0.038076
0.038200 0.038200 0.038200
0.038326 0.038326 0.038326
0.038450 0.038450 0.038450
0.038575 0.038575 0.038575
0.038700 0.038700 0.038700
0.038826 0.038826 0.038826
0.038951 0.038951 0.038951
0.039077 0.039077 0.039077
0.039202 0.039202 0.039202
0.039328 0.039328 0.039328
0.039454 0.039454 0.039454
0.039580 0.039580 0.039580
0.039706 0.039706 0.039706
0.039833 0.039833 0.039833
0.039959 0.039959 0.039959
0.040086 0.040086 0.040086
0.040213 0.040213 0.040213
0.040340 0.040340 0.040340
0.040467 0.040467 0.040467
0.040594 0.040594 0.040594
0.040722 0.040722 0.040722
0.040849 0.040849 0.040849
0.040977 0.040977 0.040977
0.041105 0.041105 0.041105
0.041233 0.041233 0.041233
0.041361 0.041361 0.041361
0.041489 0.041489 0.041489
0.041618 0.041618 0.041618
0.041746 0.041746 0.041746
0.041875 0.041875 0.041875
0.042004 0.042004 0.042004
0.042133 0.042133 0.042133
0.042262 0.042262 0.042262
0.042392 0.042392 0.042392
0.042522 0.042522 0.042522
0.042652 0.042652 0.042652
0.042781 0.042781 0.042781
0.042911 0.042911 0.042911
0.043042 0.043042 0.043042
0.043172 0.043172 0.043172
0.043302 0.043302 0.043302
0.043433 0.043433 0.043433
0.043564 0.043564 0.043564
0.043694 0.043694 0.043694
0.043826 0.043826 0.043826
0.043957 0.043957 0.043957
0.044088 0.044088 0.044088
0.044220 0.044220 0.044220
0.044352 0.044352 0.044352
0.044483 0.044483 0.044483
0.044615 0.044615 0.044615
0.044747 0.044747 0.044747
0.044880 0.044880 0.044880
0.045012 0.045012 0.045012
0.045145 0.045145 0.045145
0.045278 0.045278 0.045278
0.045411 0.045411 0.045411
0.045544 0.045544 0.045544
0.045677 0.045677 0.045677
0.045810 0.045810 0.045810
0.045944 0.045944 0.045944
0.046078 0.046078 0.046078
0.046211 0.046211 0.046211
0.046345 0.046345 0.046345
0.046480 0.046480 0.046480
0.046615 0.046615 0.046615
0.046749 0.046749 0.046749
0.046884 0.046884 0.046884
0.047019 0.047019 0.047019
0.047154 0.047154 0.047154
0.047289 0.047289 0.047289
0.047424 0.047424 0.047424
0.047560 0.047560 0.047560
0.047695 0.047695 0.047695
0.047832 0.047832 0.047832
0.047967 0.047967 0.047967
0.048104 0.048104 0.048104
0.048240 0.048240 0.048240
0.048376 0.048376 0.048376
0.048513 0.048513 0.048513
0.048650 0.048650 0.048650
0.048787 0.048787 0.048787
0.048924 0.048924 0.048924
0.049061 0.049061 0.049061
0.049199 0.049199 0.049199
0.049336 0.049336 0.049336
0.049474 0.049474 0.049474
0.049612 0.049612 0.049612
0.049750 0.049750 0.049750
0.049888 0.049888 0.049888
0.050027 0.050027 0.050027
0.050165 0.050165 0.050165
0.050304 0.050304 0.050304
0.050443 0.050443 0.050443
0.050582 0.050582 0.050582
0.050721 0.050721 0.050721
0.050861 0.050861 0.050861
0.051001 0.051001 0.051001
0.051141 0.051141 0.051141
0.051280 0.051280 0.051280
0.051421 0.051421 0.051421
0.051561 0.051561 0.051561
0.051701 0.051701 0.051701
0.051843 0.051843 0.051843
0.051984 0.051984 0.051984
0.052124 0.052124 0.052124
0.052266 0.052266 0.052266
0.052407 0.052407 0.052407
0.052548 0.052548 0.052548
0.052690 0.052690 0.052690
0.052832 0.052832 0.052832
0.052974 0.052974 0.052974
0.053116 0.053116 0.053116
0.053258 0.053258 0.053258
0.053401 0.053401 0.053401
0.053544 0.053544 0.053544
0.053686 0.053686 0.053686
0.053829 0.053829 0.053829
0.053973 0.053973 0.053973
0.054116 0.054116 0.054116
0.054260 0.054260 0.054260
0.054403 0.054403 0.054403
0.054547 0.054547 0.054547
0.054691 0.054691 0.054691
0.054836 0.054836 0.054836
0.054980 0.054980 0.054980
0.055125 0.055125 0.055125
0.055269 0.055269 0.055269
0.055414 0.055414 0.055414
0.055559 0.055559 0.055559
0.055705 0.055705 0.055705
0.055851 0.055851 0.055851
0.055997 0.055997 0.055997
0.056143 0.056143 0.056143
0.056289 0.056289 0.056289
0.056435 0.056435 0.056435
0.056581 0.056581 0.056581
0.056728 0.056728 0.056728
0.056875 0.056875 0.056875
0.057021 0.057021 0.057021
0.057169 0.057169 0.057169
0.057316 0.057316 0.057316
0.057463 0.057463 0.057463
0.057611 0.057611 0.057611
0.057759 0.057759 0.057759
0.057907 0.057907 0.057907
0.058055 0.058055 0.058055
0.058203 0.058203 0.058203
0.058352 0.058352 0.058352
0.058500 0.058500 0.058500
0.058649 0.058649 0.058649
0.058798 0.058798 0.058798
0.058948 0.058948 0.058948
0.059097 0.059097 0.059097
0.059247 0.059247 0.059247
0.059397 0.059397 0.059397
0.059547 0.059547 0.059547
0.059697 0.059697 0.059697
0.059847 0.059847 0.059847
0.059998 0.059998 0.059998
0.060149 0.060149 0.060149
0.060300 0.060300 0.060300
0.060451 0.060451 0.060451
0.060603 0.060603 0.060603
0.060754 0.060754 0.060754
0.060906 0.060906 0.060906
0.061058 0.061058 0.061058
0.061210 0.061210 0.061210
0.061362 0.061362 0.061362
0.061514 0.061514 0.061514
0.061667 0.061667 0.061667
0.061820 0.061820 0.061820
0.061973 0.061973 0.061973
0.062126 0.062126 0.062126
0.062279 0.062279 0.062279
0.062433 0.062433 0.062433
0.062586 0.062586 0.062586
0.062740 0.062740 0.062740
0.062894 0.062894 0.062894
0.063049 0.063049 0.063049
0.063203 0.063203 0.063203
0.063358 0.063358 0.063358
0.063512 0.063512 0.063512
0.063668 0.063668 0.063668
0.063823 0.063823 0.063823
0.063979 0.063979 0.063979
0.064135 0.064135 0.064135
0.064290 0.064290 0.064290
0.064447 0.064447 0.064447
0.064603 0.064603 0.064603
0.064759 0.064759 0.064759
0.064916 0.064916 0.064916
0.065072 0.065072 0.065072
0.065229 0.065229 0.065229
0.065387 0.065387 0.065387
0.065544 0.065544 0.065544
0.065701 0.065701 0.065701
0.065859 0.065859 0.065859
0.066017 0.066017 0.066017
0.066175 0.066175 0.066175
0.066334 0.066334 0.066334
0.066492 0.066492 0.066492
0.066651 0.066651 0.066651
0.066810 0.066810 0.066810
0.066969 0.066969 0.066969
0.067128 0.067128 0.067128
0.067288 0.067288 0.067288
0.067447 0.067447 0.067447
0.067607 0.067607 0.067607
0.067768 0.067768 0.067768
0.067928 0.067928 0.067928
0.068089 0.068089 0.068089
0.068250 0.068250 0.068250
0.068410 0.068410 0.068410
0.068572 0.068572 0.068572
0.068733 0.068733 0.068733
0.068894 0.068894 0.068894
0.069056 0.069056 0.069056
0.069218 0.069218 0.069218
0.069380 0.069380 0.069380
0.069542 0.069542 0.069542
0.069705 0.069705 0.069705
0.069867 0.069867 0.069867
0.070030 0.070030 0.070030
0.070193 0.070193 0.070193
0.070356 0.070356 0.070356
0.070520 0.070520 0.070520
0.070684 0.070684 0.070684
0.070848 0.070848 0.070848
0.071012 0.071012 0.071012
0.071176 0.071176 0.071176
0.071341 0.071341 0.071341
0.071505 0.071505 0.071505
0.071670 0.071670 0.071670
0.071835 0.071835 0.071835
0.072001 0.072001 0.072001
0.072167 0.072167 0.072167
0.072332 0.072332 0.072332
0.072498 0.072498 0.072498
0.072664 0.072664 0.072664
0.072831 0.072831 0.072831
0.072997 0.072997 0.072997
0.073164 0.073164 0.073164
0.073331 0.073331 0.073331
0.073498 0.073498 0.073498
0.073665 0.073665 0.073665
0.073833 0.073833 0.073833
0.074001 0.074001 0.074001
0.074169 0.074169 0.074169
0.074337 0.074337 0.074337
0.074506 0.074506 0.074506
0.074674 0.074674 0.074674
0.074843 0.074843 0.074843
0.075012 0.075012 0.075012
0.075181 0.075181 0.075181
0.075351 0.075351 0.075351
0.075521 0.075521 0.075521
0.075690 0.075690 0.075690
0.075860 0.075860 0.075860
0.076031 0.076031 0.076031
0.076201 0.076201 0.076201
0.076372 0.076372 0.076372
0.076543 0.076543 0.076543
0.076714 0.076714 0.076714
0.076886 0.076886 0.076886
0.077057 0.077057 0.077057
0.077229 0.077229 0.077229
0.077401 0.077401 0.077401
0.077573 0.077573 0.077573
0.077745 0.077745 0.077745
0.077918 0.077918 0.077918
0.078091 0.078091 0.078091
0.078264 0.078264 0.078264
0.078438 0.078438 0.078438
0.078611 0.078611 0.078611
0.078785 0.078785 0.078785
0.078959 0.078959 0.078959
0.079133 0.079133 0.079133
0.079307 0.079307 0.079307
0.079482 0.079482 0.079482
0.079656 0.079656 0.079656
0.079831 0.079831 0.079831
0.080007 0.080007 0.080007
0.080182 0.080182 0.080182
0.080358 0.080358 0.080358
0.080533 0.080533 0.080533
0.080710 0.080710 0.080710
0.080886 0.080886 0.080886
0.081062 0.081062 0.081062
0.081239 0.081239 0.081239
0.081416 0.081416 0.081416
0.081593 0.081593 0.081593
0.081770 0.081770 0.081770
0.081948 0.081948 0.081948
0.082126 0.082126 0.082126
0.082304 0.082304 0.082304
0.082482 0.082482 0.082482
0.082661 0.082661 0.082661
0.082840 0.082840 0.082840
0.083019 0.083019 0.083019
0.083198 0.083198 0.083198
0.083377 0.083377 0.083377
0.083557 0.083557 0.083557
0.083736 0.083736 0.083736
0.083916 0.083916 0.083916
0.084097 0.084097 0.084097
0.084277 0.084277 0.084277
0.084458 0.084458 0.084458
0.084639 0.084639 0.084639
0.084820 0.084820 0.084820
0.085001 0.085001 0.085001
0.085183 0.085183 0.085183
0.085365 0.085365 0.085365
0.085547 0.085547 0.085547
0.085729 0.085729 0.085729
0.085911 0.085911 0.085911
0.086094 0.086094 0.086094
0.086277 0.086277 0.086277
0.086460 0.086460 0.086460
0.086643 0.086643 0.086643
0.086827 0.086827 0.086827
0.087011 0.087011 0.087011
0.087195 0.087195 0.087195
0.087379 0.087379 0.087379
0.087564 0.087564 0.087564
0.087749 0.087749 0.087749
0.087934 0.087934 0.087934
0.088119 0.088119 0.088119
0.088305 0.088305 0.088305
0.088490 0.088490 0.088490
0.088676 0.088676 0.088676
0.088862 0.088862 0.088862
0.089048 0.089048 0.089048
0.089235 0.089235 0.089235
0.089422 0.089422 0.089422
0.089609 0.089609 0.089609
0.089796 0.089796 0.089796
0.089983 0.089983 0.089983
0.090171 0.090171 0.090171
0.090359 0.090359 0.090359
0.090547 0.090547 0.090547
0.090736 0.090736 0.090736
0.090924 0.090924 0.090924
0.091113 0.091113 0.091113
0.091302 0.091302 0.091302
0.091492 0.091492 0.091492
0.091681 0.091681 0.091681
0.091871 0.091871 0.091871
0.092062 0.092062 0.092062
0.092252 0.092252 0.092252
0.092442 0.092442 0.092442
0.092633 0.092633 0.092633
0.092824 0.092824 0.092824
0.093015 0.093015 0.093015
0.093207 0.093207 0.093207
0.093398 0.093398 0.093398
0.093590 0.093590 0.093590
0.093782 0.093782 0.093782
0.093975 0.093975 0.093975
0.094167 0.094167 0.094167
0.094360 0.094360 0.094360
0.094553 0.094553 0.094553
0.094746 0.094746 0.094746
0.094940 0.094940 0.094940
0.095134 0.095134 0.095134
0.095328 0.095328 0.095328
0.095522 0.095522 0.095522
0.095716 0.095716 0.095716
0.095911 0.095911 0.095911
0.096107 0.096107 0.096107
0.096302 0.096302 0.096302
0.096497 0.096497 0.096497
0.096693 0.096693 0.096693
0.096889 0.096889 0.096889
0.097085 0.097085 0.097085
0.097282 0.097282 0.097282
0.097478 0.097478 0.097478
0.097675 0.097675 0.097675
0.097872 0.097872 0.097872
0.098070 0.098070 0.098070
0.098267 0.098267 0.098267
0.098465 0.098465 0.098465
0.098663 0.098663 0.098663
0.098861 0.098861 0.098861
0.099060 0.099060 0.099060
0.099259 0.099259 0.099259
0.099458 0.099458 0.099458
0.099657 0.099657 0.099657
0.099857 0.099857 0.099857
0.100056 0.100056 0.100056
0.100257 0.100257 0.100257
0.100458 0.100458 0.100458
0.100658 0.100658 0.100658
0.100859 0.100859 0.100859
0.101060 0.101060 0.101060
0.101261 0.101261 0.101261
0.101463 0.101463 0.101463
0.101664 0.101664 0.101664
0.101866 0.101866 0.101866
0.102069 0.102069 0.102069
0.102271 0.102271 0.102271
0.102474 0.102474 0.102474
0.102677 0.102677 0.102677
0.102880 0.102880 0.102880
0.103084 0.103084 0.103084
0.103287 0.103287 0.103287
0.103491 0.103491 0.103491
0.103695 0.103695 0.103695
0.103900 0.103900 0.103900
0.104105 0.104105 0.104105
0.104309 0.104309 0.104309
0.104516 0.104516 0.104516
0.104721 0.104721 0.104721
0.104927 0.104927 0.104927
0.105133 0.105133 0.105133
0.105339 0.105339 0.105339
0.105545 0.105545 0.105545
0.105752 0.105752 0.105752
0.105959 0.105959 0.105959
0.106166 0.106166 0.106166
0.106374 0.106374 0.106374
0.106581 0.106581 0.106581
0.106789 0.106789 0.106789
0.106998 0.106998 0.106998
0.107206 0.107206 0.107206
0.107415 0.107415 0.107415
0.107624 0.107624 0.107624
0.107833 0.107833 0.107833
0.108042 0.108042 0.108042
0.108252 0.108252 0.108252
0.108462 0.108462 0.108462
0.108673 0.108673 0.108673
0.108884 0.108884 0.108884
0.109095 0.109095 0.109095
0.109306 0.109306 0.109306
0.109517 0.109517 0.109517
0.109728 0.109728 0.109728
0.109940 0.109940 0.109940
0.110152 0.110152 0.110152
0.110365 0.110365 0.110365
0.110577 0.110577 0.110577
0.110790 0.110790 0.110790
0.111003 0.111003 0.111003
0.111216 0.111216 0.111216
0.111430 0.111430 0.111430
0.111644 0.111644 0.111644
0.111858 0.111858 0.111858
0.112072 0.112072 0.112072
0.112287 0.112287 0.112287
0.112502 0.112502 0.112502
0.112717 0.112717 0.112717
0.112933 0.112933 0.112933
0.113149 0.113149 0.113149
0.113365 0.113365 0.113365
0.113581 0.113581 0.113581
0.113797 0.113797 0.113797
0.114014 0.114014 0.114014
0.114231 0.114231 0.114231
0.114448 0.114448 0.114448
0.114665 0.114665 0.114665
0.114883 0.114883 0.114883
0.115101 0.115101 0.115101
0.115319 0.115319 0.115319
0.115538 0.115538 0.115538
0.115757 0.115757 0.115757
0.115976 0.115976 0.115976
0.116196 0.116196 0.116196
0.116415 0.116415 0.116415
0.116635 0.116635 0.116635
0.116855 0.116855 0.116855
0.117076 0.117076 0.117076
0.117297 0.117297 0.117297
0.117517 0.117517 0.117517
0.117739 0.117739 0.117739
0.117960 0.117960 0.117960
0.118182 0.118182 0.118182
0.118404 0.118404 0.118404
0.118626 0.118626 0.118626
0.118848 0.118848 0.118848
0.119071 0.119071 0.119071
0.119294 0.119294 0.119294
0.119517 0.119517 0.119517
0.119741 0.119741 0.119741
0.119965 0.119965 0.119965
0.120190 0.120190 0.120190
0.120414 0.120414 0.120414
0.120639 0.120639 0.120639
0.120864 0.120864 0.120864
0.121089 0.121089 0.121089
0.121314 0.121314 0.121314
0.121540 0.121540 0.121540
0.121766 0.121766 0.121766
0.121992 0.121992 0.121992
0.122219 0.122219 0.122219
0.122446 0.122446 0.122446
0.122673 0.122673 0.122673
0.122900 0.122900 0.122900
0.123128 0.123128 0.123128
0.123356 0.123356 0.123356
0.123584 0.123584 0.123584
0.123812 0.123812 0.123812
0.124041 0.124041 0.124041
0.124271 0.124271 0.124271
0.124500 0.124500 0.124500
0.124730 0.124730 0.124730
0.124959 0.124959 0.124959
0.125189 0.125189 0.125189
0.125420 0.125420 0.125420
0.125650 0.125650 0.125650
0.125881 0.125881 0.125881
0.126112 0.126112 0.126112
0.126344 0.126344 0.126344
0.126576 0.126576 0.126576
0.126808 0.126808 0.126808
0.127040 0.127040 0.127040
0.127273 0.127273 0.127273
0.127506 0.127506 0.127506
0.127739 0.127739 0.127739
