ArriLogc2KodakLin.spi1d
Version 1
From 0.0 1.0
Length 1024
Components 1
{
     0.0
     0.000977517106549
     0.0019550342131
     0.00293255131965
     0.0039100684262
     0.00488758553275
     0.0058651026393
     0.00684261974585
     0.00782013685239
     0.00879765395894
     0.00977517106549
     0.010752688172
     0.0117302052786
     0.0127077223851
     0.0136852394917
     0.0146627565982
     0.0156402737048
     0.0166177908113
     0.0175953079179
     0.0185728250244
     0.019550342131
     0.0205278592375
     0.0215053763441
     0.0224828934506
     0.0234604105572
     0.0244379276637
     0.0254154447703
     0.0263929618768
     0.0273704789834
     0.0283479960899
     0.0293255131965
     0.030303030303
     0.0312805474096
     0.0322580645161
     0.0332355816227
     0.0342130987292
     0.0351906158358
     0.0361681329423
     0.0371456500489
     0.0381231671554
     0.039100684262
     0.0400782013685
     0.0410557184751
     0.0420332355816
     0.0430107526882
     0.0439882697947
     0.0449657869013
     0.0459433040078
     0.0469208211144
     0.0478983382209
     0.0488758553275
     0.049853372434
     0.0508308895406
     0.0518084066471
     0.0527859237537
     0.0537634408602
     0.0547409579668
     0.0557184750733
     0.0566959921799
     0.0576735092864
     0.058651026393
     0.0596285434995
     0.0606060606061
     0.0615835777126
     0.0625610948192
     0.0635386119257
     0.0645161290323
     0.0654936461388
     0.0664711632454
     0.0674486803519
     0.0684261974585
     0.069403714565
     0.0703812316716
     0.0713587487781
     0.0723362658847
     0.0733137829912
     0.0742913000978
     0.0752688172043
     0.0762463343109
     0.0772238514174
     0.0782013685239
     0.0791788856305
     0.080156402737
     0.0811339198436
     0.0821114369501
     0.0830889540567
     0.0840664711632
     0.0850439882698
     0.0860215053763
     0.0869990224829
     0.0879765395894
     0.088954056696
     0.0899315738025
     0.0909090909091
     0.0918866080156
     0.0928641251222
     0.0938416422287
     0.0948191593353
     0.0957966764418
     0.0967741935484
     0.0977517106549
     0.0987292277615
     0.099706744868
     0.100684261975
     0.101661779081
     0.102639296188
     0.103616813294
     0.104594330401
     0.105571847507
     0.106549364614
     0.10752688172
     0.108504398827
     0.109481915934
     0.11045943304
     0.111436950147
     0.112414467253
     0.11339198436
     0.114369501466
     0.115347018573
     0.116324535679
     0.117302052786
     0.118279569892
     0.119257086999
     0.120234604106
     0.121212121212
     0.122189638319
     0.123167155425
     0.124144672532
     0.125122189638
     0.126099706745
     0.127077223851
     0.128054740958
     0.129032258065
     0.130009775171
     0.130987292278
     0.131964809384
     0.132942326491
     0.133919843597
     0.134897360704
     0.13587487781
     0.136852394917
     0.137829912023
     0.13880742913
     0.139784946237
     0.140762463343
     0.14173998045
     0.142717497556
     0.143695014663
     0.144672531769
     0.145650048876
     0.146627565982
     0.147605083089
     0.148582600196
     0.149560117302
     0.150537634409
     0.151515151515
     0.152492668622
     0.153470185728
     0.154447702835
     0.155425219941
     0.156402737048
     0.157380254154
     0.158357771261
     0.159335288368
     0.160312805474
     0.161290322581
     0.162267839687
     0.163245356794
     0.1642228739
     0.165200391007
     0.166177908113
     0.16715542522
     0.168132942326
     0.169110459433
     0.17008797654
     0.171065493646
     0.172043010753
     0.173020527859
     0.173998044966
     0.174975562072
     0.175953079179
     0.176930596285
     0.177908113392
     0.178885630499
     0.179863147605
     0.180840664712
     0.181818181818
     0.182795698925
     0.183773216031
     0.184750733138
     0.185728250244
     0.186705767351
     0.187683284457
     0.188660801564
     0.189638318671
     0.190615835777
     0.191593352884
     0.19257086999
     0.193548387097
     0.194525904203
     0.19550342131
     0.196480938416
     0.197458455523
     0.19843597263
     0.199413489736
     0.200391006843
     0.201368523949
     0.202346041056
     0.203323558162
     0.204301075269
     0.205278592375
     0.206256109482
     0.207233626588
     0.208211143695
     0.209188660802
     0.210166177908
     0.211143695015
     0.212121212121
     0.213098729228
     0.214076246334
     0.215053763441
     0.216031280547
     0.217008797654
     0.217986314761
     0.218963831867
     0.219941348974
     0.22091886608
     0.221896383187
     0.222873900293
     0.2238514174
     0.224828934506
     0.225806451613
     0.226783968719
     0.227761485826
     0.228739002933
     0.229716520039
     0.230694037146
     0.231671554252
     0.232649071359
     0.233626588465
     0.234604105572
     0.235581622678
     0.236559139785
     0.237536656891
     0.238514173998
     0.239491691105
     0.240469208211
     0.241446725318
     0.242424242424
     0.243401759531
     0.244379276637
     0.245356793744
     0.24633431085
     0.247311827957
     0.248289345064
     0.24926686217
     0.250244379277
     0.251221896383
     0.25219941349
     0.253176930596
     0.254154447703
     0.255131964809
     0.256109481916
     0.257086999022
     0.258064516129
     0.259042033236
     0.260019550342
     0.260997067449
     0.261974584555
     0.262952101662
     0.263929618768
     0.264907135875
     0.265884652981
     0.266862170088
     0.267839687195
     0.268817204301
     0.269794721408
     0.270772238514
     0.271749755621
     0.272727272727
     0.273704789834
     0.27468230694
     0.275659824047
     0.276637341153
     0.27761485826
     0.278592375367
     0.279569892473
     0.28054740958
     0.281524926686
     0.282502443793
     0.283479960899
     0.284457478006
     0.285434995112
     0.286412512219
     0.287390029326
     0.288367546432
     0.289345063539
     0.290322580645
     0.291300097752
     0.292277614858
     0.293255131965
     0.294232649071
     0.295210166178
     0.296187683284
     0.297165200391
     0.298142717498
     0.299120234604
     0.300097751711
     0.301075268817
     0.302052785924
     0.30303030303
     0.304007820137
     0.304985337243
     0.30596285435
     0.306940371457
     0.307917888563
     0.30889540567
     0.309872922776
     0.310850439883
     0.311827956989
     0.312805474096
     0.313782991202
     0.314760508309
     0.315738025415
     0.316715542522
     0.317693059629
     0.318670576735
     0.319648093842
     0.320625610948
     0.321603128055
     0.322580645161
     0.323558162268
     0.324535679374
     0.325513196481
     0.326490713587
     0.327468230694
     0.328445747801
     0.329423264907
     0.330400782014
     0.33137829912
     0.332355816227
     0.333333333333
     0.33431085044
     0.335288367546
     0.336265884653
     0.33724340176
     0.338220918866
     0.339198435973
     0.340175953079
     0.341153470186
     0.342130987292
     0.343108504399
     0.344086021505
     0.345063538612
     0.346041055718
     0.347018572825
     0.347996089932
     0.348973607038
     0.349951124145
     0.350928641251
     0.351906158358
     0.352883675464
     0.353861192571
     0.354838709677
     0.355816226784
     0.356793743891
     0.357771260997
     0.358748778104
     0.35972629521
     0.360703812317
     0.361681329423
     0.36265884653
     0.363636363636
     0.364613880743
     0.365591397849
     0.366568914956
     0.367546432063
     0.368523949169
     0.369501466276
     0.370478983382
     0.371456500489
     0.372434017595
     0.373411534702
     0.374389051808
     0.375366568915
     0.376344086022
     0.377321603128
     0.378299120235
     0.379276637341
     0.380254154448
     0.381231671554
     0.382209188661
     0.383186705767
     0.384164222874
     0.38514173998
     0.386119257087
     0.387096774194
     0.3880742913
     0.389051808407
     0.390029325513
     0.39100684262
     0.391984359726
     0.392961876833
     0.393939393939
     0.394916911046
     0.395894428152
     0.396871945259
     0.397849462366
     0.398826979472
     0.399804496579
     0.400782013685
     0.401759530792
     0.402737047898
     0.403714565005
     0.404692082111
     0.405669599218
     0.406647116325
     0.407624633431
     0.408602150538
     0.409579667644
     0.410557184751
     0.411534701857
     0.412512218964
     0.41348973607
     0.414467253177
     0.415444770283
     0.41642228739
     0.417399804497
     0.418377321603
     0.41935483871
     0.420332355816
     0.421309872923
     0.422287390029
     0.423264907136
     0.424242424242
     0.425219941349
     0.426197458456
     0.427174975562
     0.428152492669
     0.429130009775
     0.430107526882
     0.431085043988
     0.432062561095
     0.433040078201
     0.434017595308
     0.434995112414
     0.435972629521
     0.436950146628
     0.437927663734
     0.438905180841
     0.439882697947
     0.440860215054
     0.44183773216
     0.442815249267
     0.443792766373
     0.44477028348
     0.445747800587
     0.446725317693
     0.4477028348
     0.448680351906
     0.449657869013
     0.450635386119
     0.451612903226
     0.452590420332
     0.453567937439
     0.454545454545
     0.455522971652
     0.456500488759
     0.457478005865
     0.458455522972
     0.459433040078
     0.460410557185
     0.461388074291
     0.462365591398
     0.463343108504
     0.464320625611
     0.465298142717
     0.466275659824
     0.467253176931
     0.468230694037
     0.469208211144
     0.47018572825
     0.471163245357
     0.472140762463
     0.47311827957
     0.474095796676
     0.475073313783
     0.47605083089
     0.477028347996
     0.478005865103
     0.478983382209
     0.479960899316
     0.480938416422
     0.481915933529
     0.482893450635
     0.483870967742
     0.484848484848
     0.485826001955
     0.486803519062
     0.487781036168
     0.488758553275
     0.489736070381
     0.490713587488
     0.491691104594
     0.492668621701
     0.493646138807
     0.494623655914
     0.495601173021
     0.496578690127
     0.497556207234
     0.49853372434
     0.499511241447
     0.500488758553
     0.50146627566
     0.502443792766
     0.503421309873
     0.504398826979
     0.505376344086
     0.506353861193
     0.507331378299
     0.508308895406
     0.509286412512
     0.510263929619
     0.511241446725
     0.512218963832
     0.513196480938
     0.514173998045
     0.515151515152
     0.516129032258
     0.517106549365
     0.518084066471
     0.519061583578
     0.520039100684
     0.521016617791
     0.521994134897
     0.522971652004
     0.52394916911
     0.524926686217
     0.525904203324
     0.52688172043
     0.527859237537
     0.528836754643
     0.52981427175
     0.530791788856
     0.531769305963
     0.532746823069
     0.533724340176
     0.534701857283
     0.535679374389
     0.536656891496
     0.537634408602
     0.538611925709
     0.539589442815
     0.540566959922
     0.541544477028
     0.542521994135
     0.543499511241
     0.544477028348
     0.545454545455
     0.546432062561
     0.547409579668
     0.548387096774
     0.549364613881
     0.550342130987
     0.551319648094
     0.5522971652
     0.553274682307
     0.554252199413
     0.55522971652
     0.556207233627
     0.557184750733
     0.55816226784
     0.559139784946
     0.560117302053
     0.561094819159
     0.562072336266
     0.563049853372
     0.564027370479
     0.565004887586
     0.565982404692
     0.566959921799
     0.567937438905
     0.568914956012
     0.569892473118
     0.570869990225
     0.571847507331
     0.572825024438
     0.573802541544
     0.574780058651
     0.575757575758
     0.576735092864
     0.577712609971
     0.578690127077
     0.579667644184
     0.58064516129
     0.581622678397
     0.582600195503
     0.58357771261
     0.584555229717
     0.585532746823
     0.58651026393
     0.587487781036
     0.588465298143
     0.589442815249
     0.590420332356
     0.591397849462
     0.592375366569
     0.593352883675
     0.594330400782
     0.595307917889
     0.596285434995
     0.597262952102
     0.598240469208
     0.599217986315
     0.600195503421
     0.601173020528
     0.602150537634
     0.603128054741
     0.604105571848
     0.605083088954
     0.606060606061
     0.607038123167
     0.608015640274
     0.60899315738
     0.609970674487
     0.610948191593
     0.6119257087
     0.612903225806
     0.613880742913
     0.61485826002
     0.615835777126
     0.616813294233
     0.617790811339
     0.618768328446
     0.619745845552
     0.620723362659
     0.621700879765
     0.622678396872
     0.623655913978
     0.624633431085
     0.625610948192
     0.626588465298
     0.627565982405
     0.628543499511
     0.629521016618
     0.630498533724
     0.631476050831
     0.632453567937
     0.633431085044
     0.634408602151
     0.635386119257
     0.636363636364
     0.63734115347
     0.638318670577
     0.639296187683
     0.64027370479
     0.641251221896
     0.642228739003
     0.643206256109
     0.644183773216
     0.645161290323
     0.646138807429
     0.647116324536
     0.648093841642
     0.649071358749
     0.650048875855
     0.651026392962
     0.652003910068
     0.652981427175
     0.653958944282
     0.654936461388
     0.655913978495
     0.656891495601
     0.657869012708
     0.658846529814
     0.659824046921
     0.660801564027
     0.661779081134
     0.66275659824
     0.663734115347
     0.664711632454
     0.66568914956
     0.666666666667
     0.667644183773
     0.66862170088
     0.669599217986
     0.670576735093
     0.671554252199
     0.672531769306
     0.673509286413
     0.674486803519
     0.675464320626
     0.676441837732
     0.677419354839
     0.678396871945
     0.679374389052
     0.680351906158
     0.681329423265
     0.682306940371
     0.683284457478
     0.684261974585
     0.685239491691
     0.686217008798
     0.687194525904
     0.688172043011
     0.689149560117
     0.690127077224
     0.69110459433
     0.692082111437
     0.693059628543
     0.69403714565
     0.695014662757
     0.695992179863
     0.69696969697
     0.697947214076
     0.698924731183
     0.699902248289
     0.700879765396
     0.701857282502
     0.702834799609
     0.703812316716
     0.704789833822
     0.705767350929
     0.706744868035
     0.707722385142
     0.708699902248
     0.709677419355
     0.710654936461
     0.711632453568
     0.712609970674
     0.713587487781
     0.714565004888
     0.715542521994
     0.716520039101
     0.717497556207
     0.718475073314
     0.71945259042
     0.720430107527
     0.721407624633
     0.72238514174
     0.723362658847
     0.724340175953
     0.72531769306
     0.726295210166
     0.727272727273
     0.728250244379
     0.729227761486
     0.730205278592
     0.731182795699
     0.732160312805
     0.733137829912
     0.734115347019
     0.735092864125
     0.736070381232
     0.737047898338
     0.738025415445
     0.739002932551
     0.739980449658
     0.740957966764
     0.741935483871
     0.742913000978
     0.743890518084
     0.744868035191
     0.745845552297
     0.746823069404
     0.74780058651
     0.748778103617
     0.749755620723
     0.75073313783
     0.751710654936
     0.752688172043
     0.75366568915
     0.754643206256
     0.755620723363
     0.756598240469
     0.757575757576
     0.758553274682
     0.759530791789
     0.760508308895
     0.761485826002
     0.762463343109
     0.763440860215
     0.764418377322
     0.765395894428
     0.766373411535
     0.767350928641
     0.768328445748
     0.769305962854
     0.770283479961
     0.771260997067
     0.772238514174
     0.773216031281
     0.774193548387
     0.775171065494
     0.7761485826
     0.777126099707
     0.778103616813
     0.77908113392
     0.780058651026
     0.781036168133
     0.782013685239
     0.782991202346
     0.783968719453
     0.784946236559
     0.785923753666
     0.786901270772
     0.787878787879
     0.788856304985
     0.789833822092
     0.790811339198
     0.791788856305
     0.792766373412
     0.793743890518
     0.794721407625
     0.795698924731
     0.796676441838
     0.797653958944
     0.798631476051
     0.799608993157
     0.800586510264
     0.80156402737
     0.802541544477
     0.803519061584
     0.80449657869
     0.805474095797
     0.806451612903
     0.80742913001
     0.808406647116
     0.809384164223
     0.810361681329
     0.811339198436
     0.812316715543
     0.813294232649
     0.814271749756
     0.815249266862
     0.816226783969
     0.817204301075
     0.818181818182
     0.819159335288
     0.820136852395
     0.821114369501
     0.822091886608
     0.823069403715
     0.824046920821
     0.825024437928
     0.826001955034
     0.826979472141
     0.827956989247
     0.828934506354
     0.82991202346
     0.830889540567
     0.831867057674
     0.83284457478
     0.833822091887
     0.834799608993
     0.8357771261
     0.836754643206
     0.837732160313
     0.838709677419
     0.839687194526
     0.840664711632
     0.841642228739
     0.842619745846
     0.843597262952
     0.844574780059
     0.845552297165
     0.846529814272
     0.847507331378
     0.848484848485
     0.849462365591
     0.850439882698
     0.851417399804
     0.852394916911
     0.853372434018
     0.854349951124
     0.855327468231
     0.856304985337
     0.857282502444
     0.85826001955
     0.859237536657
     0.860215053763
     0.86119257087
     0.862170087977
     0.863147605083
     0.86412512219
     0.865102639296
     0.866080156403
     0.867057673509
     0.868035190616
     0.869012707722
     0.869990224829
     0.870967741935
     0.871945259042
     0.872922776149
     0.873900293255
     0.874877810362
     0.875855327468
     0.876832844575
     0.877810361681
     0.878787878788
     0.879765395894
     0.880742913001
     0.881720430108
     0.882697947214
     0.883675464321
     0.884652981427
     0.885630498534
     0.88660801564
     0.887585532747
     0.888563049853
     0.88954056696
     0.890518084066
     0.891495601173
     0.89247311828
     0.893450635386
     0.894428152493
     0.895405669599
     0.896383186706
     0.897360703812
     0.898338220919
     0.899315738025
     0.900293255132
     0.901270772239
     0.902248289345
     0.903225806452
     0.904203323558
     0.905180840665
     0.906158357771
     0.907135874878
     0.908113391984
     0.909090909091
     0.910068426197
     0.911045943304
     0.912023460411
     0.913000977517
     0.913978494624
     0.91495601173
     0.915933528837
     0.916911045943
     0.91788856305
     0.918866080156
     0.919843597263
     0.92082111437
     0.921798631476
     0.922776148583
     0.923753665689
     0.924731182796
     0.925708699902
     0.926686217009
     0.927663734115
     0.928641251222
     0.929618768328
     0.930596285435
     0.931573802542
     0.932551319648
     0.933528836755
     0.934506353861
     0.935483870968
     0.936461388074
     0.937438905181
     0.938416422287
     0.939393939394
     0.9403714565
     0.941348973607
     0.942326490714
     0.94330400782
     0.944281524927
     0.945259042033
     0.94623655914
     0.947214076246
     0.948191593353
     0.949169110459
     0.950146627566
     0.951124144673
     0.952101661779
     0.953079178886
     0.954056695992
     0.955034213099
     0.956011730205
     0.956989247312
     0.957966764418
     0.958944281525
     0.959921798631
     0.960899315738
     0.961876832845
     0.962854349951
     0.963831867058
     0.964809384164
     0.965786901271
     0.966764418377
     0.967741935484
     0.96871945259
     0.969696969697
     0.970674486804
     0.97165200391
     0.972629521017
     0.973607038123
     0.97458455523
     0.975562072336
     0.976539589443
     0.977517106549
     0.978494623656
     0.979472140762
     0.980449657869
     0.981427174976
     0.982404692082
     0.983382209189
     0.984359726295
     0.985337243402
     0.986314760508
     0.987292277615
     0.988269794721
     0.989247311828
     0.990224828935
     0.991202346041
     0.992179863148
     0.993157380254
     0.994134897361
     0.995112414467
     0.996089931574
     0.99706744868
     0.998044965787
     0.999022482893
     1.0
}
